!!!OTL: 84. Fridericus Rex.
!!!COM: Volksweise
!!!ARE: Europa, Mitteleuropa, Deutschland
!!!SCT: B0084
!!!TXL: @@DE
!!!YEM: Copyright 1995, estate of Helmut Schaffrath.
**kern	**text
*ICvox	*
*Ivox	*
*M4/4	*
*met(c)	*
*clefG2	*
*k[b-e-]	*
*B-:	*
!LO:TX:a:t=Marſchmäßig.	!
{8.f	Fri-
16f	-de-
=1	=1
4b-	-ri-
4b-	-cus
4b-	Rex,
[8dd	un-
8dd]	-ſer
=2	=2
8.ccL	Kö-
16b-J	.
8a	-nig
8g	und
4f	Herr,
8r}	.
{8f	der
=3	=3
4f	rief
8cc	ſeine
8cc	Sol-
8cc	-da-
8cc	-ten
8ff	al-
8ee-	-le-
=4	=4
4dd	-ſammt
[8.cc	ins
16cc]	Ge-
4b-}	-wehr
{4ff	ʒwei
=5	=5
[8.dd	hundert
16dd]	.
8dd	Bataillons
8dd	.
(8.dd	.
16ff)	und
8ee-	an
8dd	die
=6	=6
8.ccL	tau-
16b-J	-ſend
8a	Schwadron'n,
8b-/	.
4cc}	.
{8b-L	und
8ccJ	.
=7	=7
[8.dd	je-
16dd]	-der
8dd	Gre-
8dd	-na-
8.ffL	-dier
16ee-	.
8ddJ	.
8cc	kriegt
=8	=8
4dd	ſech-
8.cc	-ʒig
16cc	Pat-
4b-}	-ron'n.
{4ff	ʒwei
=9	=9
[8.dd	hundert
16dd]	.
8dd	Bataillons
8dd	.
(8.dd	.
16ff)	und
8ee-	an
8dd	die
=10	=10
8.ccL	tau-
16b-J	-ſend
8a	Schwadron'n,
8b-/	.
4cc}	.
{8b-L	und
8ccJ	.
=11	=11
[8.dd	je-
16dd]	-der
8dd	Gre-
8dd	-na-
8.ffL	-dier
16ee-	.
8ddJ	.
8cc	kriegt
=12	=12
4dd	ſech-
8.cc	-ʒig
16cc	Pat-
4b-}	-ron'n.
==	==
!!!AGN: Helden -, Ehren -, Gedaechtnis -, Kriegs - Lied
!!!GTL: Helden- und Ehrengedächtnißlieder
!!!ONB: ESAC (Essen Associative Code) Database: BOEHME
!!!AMT: simple quadruple
!!!AIN: vox
!!!EED: Helmut Schaffrath
!!!EEV: 1.0
!!Volksweiſe: Es marſchirten drei Regimenter.
!!@@COMMENT:"Gedicht von Georg Wilhelm Heinrich Häring (gen. Willibald Aleris). Ʒuerſt in ſeinem
!!Roman "Cabarus". Berlin 1832. Mit der Volksmelodie ſchon in Kretʒſchmer's Volkslieder J. Nr. 203(1838)."
!!@@END:
!!Text: Georg Wilhelm Heinrich Häring
!!!URL-scan:https://archive.org/details/BoehmeVtLieder1895/page/n93/mode/2up
!!!ENC: Anna Maria Matuszewska
!!!EEV: 2024/17/06
*-	*-
